Easy-Camper/img/services/03.svg

<svg width="253" height="180" viewBox="0 0 253 180" fill="none" xmlns="http://www.w3.org/2000/svg">
<g clip-path="url(#clip0)">
<path d="M251.5 167.271C251.472 167.345 251.416 167.405 251.344 167.437C251.273 167.47 251.191 167.473 251.117 167.446L14.6592 79.4587C14.5854 79.4311 14.5256 79.3753 14.4929 79.3036C14.4602 79.2319 14.4573 79.1502 14.4847 79.0763C14.5122 79.0025 14.5679 78.9426 14.6395 78.9097C14.7111 78.8768 14.7928 78.8737 14.8667 78.901L251.324 166.888C251.398 166.916 251.458 166.972 251.491 167.044C251.524 167.115 251.527 167.197 251.5 167.271Z" fill="#F2F2F2"/>
<path d="M125.54 0H69.1959C64.776 0.00500117 60.5385 1.76302 57.4132 4.88837C54.2878 8.01371 52.5298 12.2512 52.5248 16.6711V21.7639C52.4092 21.7321 52.2877 21.7276 52.17 21.7508C52.0524 21.7739 51.9417 21.8241 51.8467 21.8974C51.7518 21.9707 51.6751 22.065 51.6229 22.173C51.5707 22.281 51.5442 22.3996 51.5457 22.5195V26.436C51.5442 26.5559 51.5707 26.6745 51.6229 26.7825C51.6751 26.8905 51.7518 26.9848 51.8467 27.0581C51.9417 27.1314 52.0524 27.1816 52.17 27.2048C52.2877 27.2279 52.4092 27.2234 52.5248 27.1916V33.1216C52.4092 33.0898 52.2877 33.0853 52.17 33.1084C52.0523 33.1316 51.9417 33.1818 51.8467 33.2551C51.7517 33.3283 51.6751 33.4227 51.6229 33.5307C51.5706 33.6386 51.5442 33.7573 51.5457 33.8772V43.6683C51.5442 43.7883 51.5706 43.9069 51.6229 44.0149C51.6751 44.1228 51.7517 44.2172 51.8467 44.2905C51.9417 44.3638 52.0523 44.414 52.17 44.4371C52.2877 44.4603 52.4092 44.4557 52.5248 44.4239V48.0041C52.4092 47.9723 52.2877 47.9677 52.17 47.9909C52.0523 48.0141 51.9417 48.0643 51.8467 48.1375C51.7517 48.2108 51.6751 48.3052 51.6229 48.4131C51.5706 48.5211 51.5442 48.6398 51.5457 48.7597V58.5508C51.5442 58.6707 51.5706 58.7894 51.6229 58.8974C51.6751 59.0053 51.7517 59.0997 51.8467 59.173C51.9417 59.2462 52.0523 59.2964 52.17 59.3196C52.2877 59.3427 52.4092 59.3382 52.5248 59.3064V162.702C52.5298 167.122 54.2878 171.359 57.4132 174.485C60.5385 177.61 64.776 179.368 69.1959 179.373H125.54C129.96 179.368 134.198 177.61 137.323 174.485C140.448 171.359 142.206 167.122 142.211 162.702V16.6711C142.206 12.2512 140.448 8.01371 137.323 4.88837C134.198 1.76302 129.96 0.00500117 125.54 0ZM138.686 162.702C138.683 166.187 137.296 169.529 134.832 171.993C132.367 174.458 129.026 175.844 125.54 175.848H69.1959C65.7105 175.844 62.369 174.458 59.9044 171.993C57.4399 169.529 56.0536 166.187 56.0496 162.702V16.6711C56.0536 13.1857 57.4399 9.84416 59.9044 7.37962C62.369 4.91507 65.7105 3.52875 69.1959 3.5248H125.54C129.026 3.52874 132.367 4.91506 134.832 7.37961C137.296 9.84416 138.683 13.1857 138.686 16.6711V162.702Z" fill="#3F3D56"/>
<path d="M125.54 177.806H69.1958C65.1912 177.802 61.352 176.209 58.5203 173.377C55.6887 170.546 54.0959 166.706 54.0913 162.702V16.671C54.0959 12.6665 55.6887 8.82724 58.5203 5.99558C61.352 3.16393 65.1912 1.5711 69.1958 1.56656H125.54C129.545 1.5711 133.384 3.16392 136.216 5.99558C139.047 8.82724 140.64 12.6665 140.645 16.671V162.702C140.64 166.706 139.047 170.546 136.216 173.377C133.384 176.209 129.545 177.802 125.54 177.806Z" fill="#E6E6E6"/>
<path d="M126.933 175.456H67.8036C65.1027 175.453 62.5133 174.379 60.6034 172.469C58.6936 170.559 57.6193 167.97 57.6162 165.269V14.1038C57.6193 11.4029 58.6936 8.81345 60.6034 6.90362C62.5132 4.99379 65.1026 3.9195 67.8035 3.91644H75.5146C75.9611 3.91695 76.389 4.09451 76.7047 4.41018C77.0203 4.72584 77.1979 5.15383 77.1984 5.60024C77.1999 6.91901 77.7244 8.18335 78.6569 9.11587C79.5895 10.0484 80.8538 10.5729 82.1726 10.5744H111.78C113.099 10.5729 114.363 10.0484 115.296 9.11587C116.228 8.18335 116.753 6.91901 116.754 5.60023C116.755 5.15382 116.933 4.72584 117.248 4.41017C117.564 4.09451 117.992 3.91694 118.438 3.91643H126.933C129.633 3.91949 132.223 4.99378 134.133 6.90361C136.043 8.81344 137.117 11.4028 137.12 14.1038V165.269C137.117 167.97 136.043 170.559 134.133 172.469C132.223 174.379 129.634 175.453 126.933 175.456Z" fill="white"/>
<path d="M99.9137 7.34334H92.8641C92.6564 7.34334 92.4571 7.26082 92.3102 7.11392C92.1633 6.96703 92.0808 6.76779 92.0808 6.56005C92.0808 6.35231 92.1633 6.15308 92.3102 6.00618C92.4571 5.85929 92.6564 5.77676 92.8641 5.77676H99.9137C100.121 5.77676 100.321 5.85929 100.468 6.00618C100.614 6.15308 100.697 6.35231 100.697 6.56005C100.697 6.76779 100.614 6.96703 100.468 7.11392C100.321 7.26082 100.121 7.34334 99.9137 7.34334Z" fill="white"/>
<path d="M104.809 7.14752C105.026 7.14752 105.201 6.97217 105.201 6.75587C105.201 6.53957 105.026 6.36423 104.809 6.36423C104.593 6.36423 104.418 6.53957 104.418 6.75587C104.418 6.97217 104.593 7.14752 104.809 7.14752Z" fill="white"/>
<path d="M139.025 34.5124H55.6335V35.4049H139.025V34.5124Z" fill="#E6E6E6"/>
<path d="M139.025 52.3636H55.6335V53.2562H139.025V52.3636Z" fill="#E6E6E6"/>
<path d="M139.025 89.2562H55.6335V90.1488H139.025V89.2562Z" fill="#E6E6E6"/>
<path d="M139.025 126.149H55.6335V127.041H139.025V126.149Z" fill="#E6E6E6"/>
<path d="M139.025 155.008H55.6335V155.901H139.025V155.008Z" fill="#E6E6E6"/>
<path d="M116.194 34.9587H115.302V89.7025H116.194V34.9587Z" fill="#E6E6E6"/>
<path d="M74.4475 89.6865H73.5549V155.455H74.4475V89.6865Z" fill="#E6E6E6"/>
<path d="M137.12 107.727H74.0012V108.62H137.12V107.727Z" fill="#E6E6E6"/>
<path d="M116.29 155.455H115.398V175.456H116.29V155.455Z" fill="#E6E6E6"/>
<path d="M115.599 71.1754H57.4673V72.068H115.599V71.1754Z" fill="#E6E6E6"/>
<path d="M69.6076 3.35248L68.7842 3.69707L81.939 35.131L82.7624 34.7864L69.6076 3.35248Z" fill="#E6E6E6"/>
<path d="M110.122 10.5743H109.229V34.9587H110.122V10.5743Z" fill="#E6E6E6"/>
<path d="M133.138 48.4959C133.138 56.4933 120.773 75.1287 117.159 80.404C117.05 80.5634 116.904 80.6939 116.733 80.7841C116.562 80.8742 116.372 80.9213 116.179 80.9213C115.986 80.9213 115.795 80.8742 115.625 80.7841C115.454 80.6939 115.307 80.5634 115.198 80.404C111.585 75.1287 99.2202 56.4933 99.2202 48.4959C99.2202 43.9981 101.007 39.6846 104.187 36.5043C107.368 33.3239 111.681 31.5372 116.179 31.5372C120.677 31.5372 124.99 33.3239 128.17 36.5043C131.351 39.6846 133.138 43.9981 133.138 48.4959Z" fill="#F78065"/>
<path d="M116.179 55.9339C120.944 55.9339 124.807 52.071 124.807 47.3058C124.807 42.5406 120.944 38.6777 116.179 38.6777C111.414 38.6777 107.551 42.5406 107.551 47.3058C107.551 52.071 111.414 55.9339 116.179 55.9339Z" fill="white"/>
<path d="M115.614 89.9591L82.9382 155.245L83.7364 155.644L116.412 90.3585L115.614 89.9591Z" fill="#E6E6E6"/>
<path d="M162.672 104.32C163.057 104.527 163.483 104.647 163.92 104.672C164.357 104.696 164.793 104.625 165.199 104.462C165.606 104.3 165.971 104.051 166.27 103.732C166.57 103.413 166.795 103.032 166.932 102.616L177.562 102.433L174.441 97.8735L164.825 98.747C164.111 98.5644 163.356 98.6499 162.701 98.9872C162.047 99.3245 161.539 99.8902 161.273 100.577C161.008 101.264 161.004 102.024 161.261 102.714C161.519 103.404 162.021 103.975 162.672 104.32H162.672Z" fill="#FFB8B8"/>
<path d="M169.053 104.187C168.889 104.187 168.726 104.154 168.574 104.089C168.423 104.024 168.286 103.929 168.172 103.81C168.058 103.691 167.969 103.551 167.911 103.396C167.853 103.242 167.827 103.078 167.834 102.913L168.049 98.0387C168.061 97.7484 168.176 97.472 168.374 97.2595C168.572 97.047 168.84 96.9126 169.129 96.8806L181.444 95.4682L181.031 103.591L169.114 104.185C169.094 104.186 169.074 104.187 169.053 104.187Z" fill="#F78065"/>
<path d="M184.052 171.002L180.584 172.134L174.566 159.299L179.684 157.628L184.052 171.002Z" fill="#FFB8B8"/>
<path d="M186.034 174.074L174.854 177.725L174.808 177.584C174.621 177.012 174.549 176.41 174.595 175.81C174.641 175.211 174.805 174.626 175.077 174.09C175.349 173.554 175.724 173.077 176.181 172.686C176.637 172.295 177.166 171.997 177.738 171.811L177.738 171.811L184.566 169.581L186.034 174.074Z" fill="#2F2E41"/>
<path d="M194.264 176.369L190.617 176.369L188.882 162.3L194.265 162.3L194.264 176.369Z" fill="#FFB8B8"/>
<path d="M195.194 179.905L183.433 179.904V179.756C183.433 179.154 183.552 178.559 183.782 178.004C184.012 177.448 184.349 176.944 184.774 176.519C185.199 176.094 185.704 175.756 186.259 175.526C186.815 175.296 187.41 175.178 188.011 175.178H188.011L195.195 175.178L195.194 179.905Z" fill="#2F2E41"/>
<path d="M188.724 172.945C188.426 172.944 188.138 172.835 187.915 172.637C187.693 172.439 187.55 172.166 187.514 171.87L182.811 132.554L175.927 143.605L184.004 164.246C184.114 164.531 184.114 164.847 184.003 165.132C183.892 165.417 183.679 165.65 183.405 165.786L176.553 169.139C176.396 169.216 176.225 169.258 176.051 169.263C175.877 169.268 175.704 169.235 175.544 169.168C175.383 169.1 175.239 168.999 175.121 168.872C175.003 168.744 174.913 168.592 174.859 168.427L167.265 145.485C166.693 143.759 166.619 141.906 167.05 140.139L171.959 119.991L172.017 119.959L183.084 113.897L183.148 113.92L196.182 118.677L194.818 144.507L195.809 171.317C195.822 171.635 195.71 171.946 195.496 172.182C195.282 172.419 194.983 172.561 194.665 172.579L188.801 172.942C188.775 172.944 188.75 172.945 188.724 172.945Z" fill="#2F2E41"/>
<path d="M181.545 127.647C179.597 127.647 177.957 127.092 176.93 125.682L176.897 125.637L177.561 118.667L171.654 121.946C171.532 122.014 171.391 122.043 171.252 122.029C171.113 122.014 170.981 121.958 170.875 121.866C170.769 121.775 170.693 121.653 170.659 121.517C170.624 121.381 170.632 121.238 170.682 121.107L178.049 101.542L182.913 85.605C183.154 84.3295 183.777 83.1573 184.699 82.2436C185.622 81.33 186.8 80.718 188.077 80.4888C192.411 79.6928 194.992 81.155 197.972 84.3997C198.693 85.1892 199.224 86.1329 199.524 87.1588C199.824 88.1848 199.886 89.2658 199.705 90.3193L196.886 106.433L197.714 120.881C197.778 121.13 197.761 121.393 197.666 121.632C197.571 121.87 197.403 122.073 197.186 122.211C194.881 123.677 187.816 127.646 181.545 127.647Z" fill="#F78065"/>
<path d="M191.403 78.0756C195.439 78.0756 198.711 74.804 198.711 70.7682C198.711 66.7324 195.439 63.4608 191.403 63.4608C187.368 63.4608 184.096 66.7324 184.096 70.7682C184.096 74.804 187.368 78.0756 191.403 78.0756Z" fill="#FFB8B8"/>
<path d="M193.307 122.857C193.704 122.675 194.057 122.408 194.34 122.075C194.623 121.741 194.83 121.35 194.945 120.928C195.061 120.506 195.082 120.064 195.009 119.633C194.935 119.202 194.767 118.792 194.518 118.433L200.785 109.844L195.266 109.583L190.161 117.778C189.585 118.237 189.198 118.891 189.072 119.617C188.946 120.342 189.09 121.089 189.478 121.715C189.866 122.341 190.47 122.803 191.175 123.014C191.881 123.224 192.639 123.169 193.307 122.857Z" fill="#FFB8B8"/>
<path d="M196.701 118.011C196.395 118.055 196.084 117.981 195.831 117.804L191.682 114.911C191.432 114.738 191.256 114.478 191.189 114.183C191.121 113.887 191.166 113.577 191.316 113.313L198.702 100.171L191.273 91.2288C190.883 90.7592 190.595 90.2135 190.428 89.6265C190.26 89.0395 190.216 88.4241 190.299 87.8192C190.382 87.2144 190.591 86.6336 190.91 86.1136C191.23 85.5936 191.655 85.1459 192.157 84.799C192.66 84.4521 193.229 84.2136 193.828 84.0986C194.428 83.9837 195.045 83.9948 195.64 84.1313C196.235 84.2678 196.795 84.5266 197.285 84.8914C197.774 85.2562 198.182 85.7189 198.483 86.25L206.686 100.728C206.744 100.831 206.775 100.947 206.774 101.065C206.774 101.184 206.744 101.3 206.686 101.403L197.589 117.406C197.505 117.554 197.391 117.682 197.255 117.783C197.118 117.884 196.963 117.956 196.797 117.993C196.765 118.001 196.733 118.006 196.701 118.011Z" fill="#F78065"/>
<path d="M188.483 69.8354C187.76 69.2955 186.759 69.3797 185.902 69.0968C185.391 68.9283 184.934 68.6286 184.576 68.2278C184.219 67.827 183.972 67.3392 183.863 66.8132C183.753 66.2873 183.783 65.7417 183.951 65.2311C184.118 64.7206 184.417 64.2631 184.817 63.9045C185.743 63.0752 187.06 62.8869 188.293 62.7352C189.983 62.5273 191.689 62.3192 193.383 62.4844C195.078 62.6497 196.784 63.2221 198.022 64.3902C199.388 65.6782 200.06 67.5955 200.065 69.4727C200.017 71.3586 199.5 73.2029 198.559 74.8381C198.268 75.4594 197.829 76.0002 197.282 76.4132C196.712 76.7894 195.908 76.8879 195.359 76.4815C194.885 76.1304 194.711 75.5152 194.497 74.9652C194.283 74.4152 193.917 73.8294 193.333 73.7445C192.581 73.6353 192.007 74.4002 191.289 74.6505C190.285 75.0006 189.17 74.2263 188.76 73.2451C188.351 72.2639 188.458 71.1537 188.573 70.0967" fill="#2F2E41"/>
<path d="M252.893 179.702C252.892 179.781 252.861 179.857 252.805 179.913C252.749 179.968 252.674 180 252.595 180H0.297521C0.218613 180 0.142938 179.969 0.0871416 179.913C0.0313456 179.857 0 179.781 0 179.702C0 179.624 0.0313456 179.548 0.0871416 179.492C0.142938 179.436 0.218613 179.405 0.297521 179.405H252.595C252.674 179.405 252.749 179.437 252.805 179.492C252.861 179.548 252.892 179.624 252.893 179.702Z" fill="#CCCCCC"/>
<path d="M116.179 93.4215C118.315 93.4215 120.047 91.6898 120.047 89.5537C120.047 87.4176 118.315 85.686 116.179 85.686C114.043 85.686 112.311 87.4176 112.311 89.5537C112.311 91.6898 114.043 93.4215 116.179 93.4215Z" fill="#F78065"/>
<path d="M170.631 47.2645C169.016 49.4173 161.923 51.9363 159.885 52.6264C159.823 52.6473 159.758 52.6529 159.693 52.6427C159.629 52.6324 159.568 52.6067 159.516 52.5677C159.464 52.5287 159.423 52.4775 159.395 52.4188C159.367 52.36 159.354 52.2953 159.357 52.2304C159.45 50.0805 159.885 42.5666 161.501 40.4138C162.409 39.2031 163.761 38.4028 165.26 38.1891C166.758 37.9754 168.28 38.3656 169.491 39.2741C170.702 40.1826 171.502 41.5348 171.716 43.0333C171.93 44.5317 171.539 46.0538 170.631 47.2645Z" fill="#F2F2F2"/>
<path d="M166.306 46.4225C167.91 46.4225 169.21 45.1224 169.21 43.5188C169.21 41.9151 167.91 40.6151 166.306 40.6151C164.703 40.6151 163.403 41.9151 163.403 43.5188C163.403 45.1224 164.703 46.4225 166.306 46.4225Z" fill="white"/>
<path d="M157.773 56.193C158.492 56.193 159.075 55.6102 159.075 54.8914C159.075 54.1725 158.492 53.5897 157.773 53.5897C157.054 53.5897 156.471 54.1725 156.471 54.8914C156.471 55.6102 157.054 56.193 157.773 56.193Z" fill="#F2F2F2"/>
<path d="M29.0609 106.316C31.4379 109.948 31.3619 122.085 31.2889 125.554C31.2868 125.659 31.2592 125.762 31.2084 125.853C31.1576 125.945 31.0852 126.023 30.9975 126.081C30.9098 126.138 30.8094 126.173 30.705 126.183C30.6006 126.193 30.4954 126.177 30.3985 126.137C27.1898 124.816 16.0364 120.028 13.6594 116.397C12.9966 115.386 12.5395 114.254 12.3144 113.066C12.0892 111.878 12.1003 110.657 12.347 109.473C12.5938 108.29 13.0714 107.166 13.7525 106.167C14.4336 105.168 15.3049 104.313 16.3166 103.651C17.3283 102.989 18.4605 102.532 19.6486 102.308C20.8368 102.083 22.0575 102.095 23.241 102.343C24.4245 102.59 25.5477 103.069 26.5463 103.75C27.5449 104.432 28.3994 105.304 29.0609 106.316Z" fill="#F2F2F2"/>
<path d="M21.0065 115.499C23.5926 115.499 25.6891 113.402 25.6891 110.816C25.6891 108.23 23.5926 106.134 21.0065 106.134C18.4204 106.134 16.324 108.23 16.324 110.816C16.324 113.402 18.4204 115.499 21.0065 115.499Z" fill="white"/>
<path d="M33.5632 132.099C34.7225 132.099 35.6623 131.16 35.6623 130C35.6623 128.841 34.7225 127.901 33.5632 127.901C32.4039 127.901 31.4641 128.841 31.4641 130C31.4641 131.16 32.4039 132.099 33.5632 132.099Z" fill="#F2F2F2"/>
</g>
<defs>
<clipPath id="clip0">
<rect width="252.893" height="180" fill="white"/>
</clipPath>
</defs>
</svg>

<svg width="253" height="180" fill="none" xmlns="http://www.w3.org/2000/svg"><g clip-path="url(#clip0)"><path d="M251.5 167.271a.296.296 0 01-.156.166.298.298 0 01-.227.009L14.659 79.459a.297.297 0 01.208-.558l236.457 87.987a.3.3 0 01.176.383z" fill="#F2F2F2"/><path d="M125.54 0H69.196a16.69 16.69 0 00-16.671 16.671v5.093a.774.774 0 00-.98.756v3.916a.774.774 0 00.98.756v5.93a.775.775 0 00-.98.755v9.791a.773.773 0 00.98.756v3.58a.774.774 0 00-.98.756v9.79a.773.773 0 00.98.756v103.396a16.691 16.691 0 0016.67 16.671h56.345a16.691 16.691 0 0016.671-16.671V16.672A16.691 16.691 0 00125.54 0zm13.146 162.702a13.157 13.157 0 01-13.146 13.146H69.196a13.16 13.16 0 01-13.146-13.146V16.672A13.162 13.162 0 0169.196 3.524h56.344a13.162 13.162 0 0113.146 13.146v146.031z" fill="#3F3D56"/><path d="M125.54 177.806H69.196a15.118 15.118 0 01-15.105-15.104V16.671A15.122 15.122 0 0169.196 1.567h56.344a15.123 15.123 0 0115.105 15.104v146.031a15.125 15.125 0 01-15.105 15.104z" fill="#E6E6E6"/><path d="M126.933 175.456h-59.13a10.198 10.198 0 01-10.187-10.187V14.104A10.2 10.2 0 0167.804 3.916h7.71A1.686 1.686 0 0177.199 5.6a4.98 4.98 0 004.975 4.974h29.607a4.981 4.981 0 004.974-4.974 1.687 1.687 0 011.684-1.684h8.495a10.2 10.2 0 0110.187 10.188v151.165a10.198 10.198 0 01-10.187 10.187z" fill="#fff"/><path d="M99.914 7.343h-7.05a.783.783 0 010-1.566h7.05a.785.785 0 01.783.783.787.787 0 01-.783.783zm4.895-.195a.392.392 0 10.001-.783.392.392 0 00-.001.783z" fill="#fff"/><path d="M139.025 34.512H55.633v.893h83.392v-.893zm0 17.852H55.633v.892h83.392v-.892zm0 36.892H55.633v.893h83.392v-.893zm0 36.893H55.633v.892h83.392v-.892zm0 28.859H55.633v.893h83.392v-.893z" fill="#E6E6E6"/><path d="M116.194 34.959h-.892v54.743h.892V34.96zM74.448 89.686h-.893v65.769h.892V89.686z" fill="#E6E6E6"/><path d="M137.12 107.727H74.001v.893h63.119v-.893zm-20.83 47.728h-.892v20.001h.892v-20.001zm-.691-84.28H57.467v.893H115.6v-.893zM69.608 3.352l-.824.345L81.94 35.131l.823-.345L69.608 3.352zm40.514 7.222h-.893V34.96h.893V10.574z" fill="#E6E6E6"/><path d="M133.138 48.496c0 7.997-12.365 26.633-15.979 31.908a1.187 1.187 0 01-1.961 0c-3.613-5.275-15.978-23.91-15.978-31.908a16.96 16.96 0 0133.918 0z" fill="#F78065"/><path d="M116.179 55.934a8.628 8.628 0 100-17.256 8.628 8.628 0 000 17.256z" fill="#fff"/><path d="M115.614 89.96l-32.676 65.285.798.399 32.676-65.285-.798-.4z" fill="#E6E6E6"/><path d="M162.672 104.32a2.997 2.997 0 002.527.142 2.994 2.994 0 001.733-1.846l10.63-.183-3.121-4.56-9.616.874a3.009 3.009 0 00-2.153 5.573z" fill="#FFB8B8"/><path d="M169.053 104.187a1.218 1.218 0 01-1.219-1.274l.215-4.874a1.216 1.216 0 011.08-1.158l12.315-1.413-.413 8.123-11.917.594-.061.002z" fill="#F78065"/><path d="M184.052 171.002l-3.468 1.132-6.018-12.835 5.118-1.671 4.368 13.374z" fill="#FFB8B8"/><path d="M186.034 174.074l-11.18 3.651-.046-.141a4.579 4.579 0 012.93-5.773l6.828-2.23 1.468 4.493z" fill="#2F2E41"/><path d="M194.264 176.369h-3.647l-1.735-14.069h5.383l-.001 14.069z" fill="#FFB8B8"/><path d="M195.194 179.905l-11.761-.001v-.148a4.576 4.576 0 011.341-3.237 4.583 4.583 0 013.237-1.341h7.184l-.001 4.727zm-6.47-6.96a1.224 1.224 0 01-1.21-1.075l-4.703-39.316-6.884 11.051 8.077 20.641a1.225 1.225 0 01-.599 1.54l-6.852 3.353a1.219 1.219 0 01-1.694-.712l-7.594-22.942a9.694 9.694 0 01-.215-5.346l4.909-20.148.058-.032 11.067-6.062.064.023 13.034 4.757-1.364 25.83.991 26.81a1.214 1.214 0 01-1.144 1.262l-5.864.363a.99.99 0 01-.077.003z" fill="#2F2E41"/><path d="M181.545 127.647c-1.948 0-3.588-.555-4.615-1.965l-.033-.045.664-6.97-5.907 3.279a.686.686 0 01-.779-.08.677.677 0 01-.193-.759l7.367-19.565 4.864-15.937a6.408 6.408 0 015.164-5.116c4.334-.796 6.915.666 9.895 3.91a7.009 7.009 0 011.733 5.92l-2.819 16.114.828 14.448a1.215 1.215 0 01-.528 1.33c-2.305 1.466-9.37 5.435-15.641 5.436z" fill="#F78065"/><path d="M191.403 78.076a7.308 7.308 0 100-14.616 7.308 7.308 0 000 14.616zm1.904 44.781a2.993 2.993 0 001.211-4.424l6.267-8.589-5.519-.261-5.105 8.195a3.008 3.008 0 003.146 5.079z" fill="#FFB8B8"/><path d="M196.701 118.011a1.216 1.216 0 01-.87-.207l-4.149-2.893a1.213 1.213 0 01-.366-1.598l7.386-13.142-7.429-8.942a4.396 4.396 0 014.367-7.098 4.403 4.403 0 012.843 2.119l8.203 14.478a.687.687 0 010 .675l-9.097 16.003a1.22 1.22 0 01-.888.605z" fill="#F78065"/><path d="M188.483 69.835c-.723-.54-1.724-.455-2.581-.738a3.064 3.064 0 01-1.085-5.192c.926-.83 2.243-1.018 3.476-1.17 1.69-.208 3.396-.416 5.09-.25 1.695.165 3.401.737 4.639 1.905 1.366 1.288 2.038 3.206 2.043 5.083a11.335 11.335 0 01-1.506 5.365 4.215 4.215 0 01-1.277 1.575c-.57.376-1.374.475-1.923.069-.474-.352-.648-.967-.862-1.517-.214-.55-.58-1.136-1.164-1.22-.752-.11-1.326.655-2.044.905-1.004.35-2.119-.424-2.529-1.405-.409-.981-.302-2.091-.187-3.148" fill="#2F2E41"/><path d="M252.893 179.702a.3.3 0 01-.298.298H.298a.297.297 0 01-.21-.508.297.297 0 01.21-.087h252.297a.3.3 0 01.298.297z" fill="#CCC"/><path d="M116.179 93.421a3.868 3.868 0 100-7.736 3.868 3.868 0 000 7.736z" fill="#F78065"/><path d="M170.631 47.264c-1.615 2.153-8.708 4.672-10.746 5.362a.402.402 0 01-.49-.207.396.396 0 01-.038-.189c.093-2.15.528-9.663 2.144-11.816a5.705 5.705 0 017.99-1.14 5.708 5.708 0 011.14 7.99z" fill="#F2F2F2"/><path d="M166.306 46.422a2.904 2.904 0 100-5.807 2.904 2.904 0 000 5.807z" fill="#fff"/><path d="M157.773 56.193a1.302 1.302 0 100-2.604 1.302 1.302 0 000 2.604zM29.06 106.316c2.378 3.632 2.302 15.769 2.229 19.238a.64.64 0 01-.292.527.65.65 0 01-.599.056c-3.208-1.321-14.362-6.109-16.739-9.74a9.2 9.2 0 01.093-10.23 9.2 9.2 0 019.489-3.824 9.207 9.207 0 015.82 3.973z" fill="#F2F2F2"/><path d="M21.006 115.499a4.683 4.683 0 100-9.366 4.683 4.683 0 000 9.366z" fill="#fff"/><path d="M33.563 132.099a2.099 2.099 0 10.001-4.197 2.099 2.099 0 000 4.197z" fill="#F2F2F2"/></g><defs><clipPath id="clip0"><path fill="#fff" d="M0 0h252.893v180H0z"/></clipPath></defs></svg>
